X: 14
T: Dr. Gilbert's
Z: Bluebadger
S: https://thesession.org/tunes/129#setting49304
R: reel
M: 4/4
L: 1/8
K: Emin
gf|:eBBA A~B3|dBAc BAGF|EDEF G2 FG|EDFE DBAG|
BE (3EEE EDEF|GE (3EEE EFGA|(3Bcd ed Bdgb|afdf efgf:|
|:e~B3 g~B3|defg afdf|(3ggg bg fgaf|egfd e~B3|
afdf edB^c|dBAF FEDF|EAcA Bdgb|afdf efgf:|

